X:1
T:The Lamentation
T:The Lamentation
T:John Farmer
T:Source : The Whole Book of Psalms---London---Musical Antiquarian Society---1844 First publication : London---Th.Est(e)---1592 Editor : André Vierendeels (22/08/16). 
T:Notes : Original clefs : C1, C3, C4, F4 Editorial accidentals above the staff Original note values have been halved, except m 8, 13, 18 and 21
T:©
T:©
T:©
C:John Farmer
Z:©
%%score [ 1 [ 2 3 ] 4 ]
L:1/8
Q:1/4=120
M:4/4
K:F
V:1 treble nm="Soprano" snm="S"
V:2 treble-8 nm="Tenor 1" snm="T 1"
V:3 treble-8 nm="Tenor 2" snm="T 2"
V:4 bass nm="Bass" snm="B"
V:1
 F4 D4- | D2 D2 B2 A2 | G2 G2 ^F4 ||"^-natural" F2 F4 E2 | D2 D2 ^C4 || E4 A2 G2 | A2 EF G2 G2 | %7
w: O, Lord,|_ turn not a-|way thy face|from him that|lieth pro- state,|la- men- ting|sore his _ sin- ful|
 A8 || A2 A4 G2 | A3 G ^F4 || G4 D2 A2 | d2 cB A2 G2 | ^F8 ||"^-natural" F2 G4 A2 | c2 =B2 A4 || %15
w: life|be- fore thy|mer- cy gate,|which gate thou|o- pe- nest wide to|those,|that do la-|ment their sin,|
 F2 G4 G2 | F2 A2 c2 d2 | =B8 || z2 G2 F2 E2- | E2 D4 ^C2 | !fermata!D8 |] %21
w: shut not that|gate a- gainst me,|Lord,|but let me|_ en- ter|in.|
V:2
 A4 A4- | A2 G2 d2 d2 | d2 d2 d4 || d2 c4 c2 | A2 A2 A4 ||"^-natural" c4 A2 d2 | ^c2 A2 B2 =c2 | %7
w: O, Lord,|_ turn not a-|way thy face|from him that|lieth pro- state,|la- men- ting|sore his sin- ful|
 c8 || c4 d2 d2 | d2 ^c2 d4 || B4 G2 c2 | BA G2 d2 Bc | d8 || d2 d4 f2 | e3 d ^c4 || d2 e4 c2 | %16
w: life|be- fore thy|mer- cy gate,|which gate thou|o- pe- nest wide to _|those,|that do la-|ment their sin,|shut not that|
 c2 d2 eA d2 | d8 || G4 c4 | c2 A4 A2 | !fermata!A8 |] %21
w: gate a- gainst _ me,|Lord,|but let|me en- ter|in.|
V:3
 D4 F4- | F2 D2 G2 F2 | B2 B2 A4 || A2 A4 G2 | F2 F2 E4 || E2 E4 D2 |"^#" E2 C2 D2 E2 | F8 || %8
w: O, Lord,|_ turn not a-|way thy face|from him that|lieth pro- state,|la- men- ting|sore his sin- ful|life|
 F2 F4 D2 | E2 E2 D4 || D4 D2 C2 | F2 E2 F2 G2 | A8 || A2 B4 A2 | A2 ^G2 A4 || A2 c4 G2 | %16
w: be- fore thy|mer- cy gate,|which gate thou|o- p'nest wide to|those,|that do la-|ment their sin,|shut not that|
 A2 F2 E2 D2 | G8 || E4 A4 | G2 F2 E4 | !fermata!D8 |] %21
w: gate a- gainst me,|Lord,|but let|me en- ter|in.|
V:4
 D,4 D,4- | D,2 B,,2 G,,2 D,2 | G,2 G,,2 D,4 || D,2 F,4 C,2 | D,2 D,2 A,,4 || A,,2 C,4 B,,2 | %6
w: O, Lord,|_ turn not a-|way thy face|from him that|lieth pro- state,|la- men- ting|
 A,,2 A,,2 G,,2 C,2 | F,,8 || A,,4 B,,3 B,, | A,,2 A,,2 D,4 || G,,4 B,,2 A,,2 | B,,2 C,2 D,2 _E,2 | %12
w: sore his sin- ful|life|be- fore thy|mer- cy gate,|which gate thou|p- p'nest wide to|
 D,8 || D,2 G,4 D,2 | E,2 E,2 A,,4 || D,2 C,3 D, E,2 | F,2 D,2 A,,2 =B,,2 | G,,8 || C,4 A,,4 | %19
w: those,|that do la-|ment their sin.|shut not _ that|gate a- gainst me,|Lord,|but let|
 C,2 F,,2 A,,4 | !fermata!D,8 |] %21
w: me en- ter|in.|

